; generated by PrusaSlicer 2.5.0+win64 on 2023-01-21 at 05:28:16 UTC


;
;

;
;
; 

; external perimeters extrusion width = 0.45mm
; perimeters extrusion width = 0.45mm
; infill extrusion width = 0.45mm
; solid infill extrusion width = 0.45mm
; top infill extrusion width = 0.40mm
; first layer extrusion width = 0.42mm

M73 P0 R10
M201 X2500 Y2500 Z400 E5000 ; sets maximum accelerations, mm/sec^2
M203 X180 Y180 Z12 E80 ; sets maximum feedrates, mm / sec
M204 P1250 R1250 T2500 ; sets acceleration (P, T) and retract acceleration (R), mm/sec^2
M205 X8.00 Y8.00 Z2.00 E10.00 ; sets the jerk limits, mm/sec
M205 S0 T0 ; sets the minimum extruding and travel feed rate, mm/sec
M107
;TYPE:Custom
M862.3 P "MINI" ; printer model check
G90 ; use absolute coordinates
M83 ; extruder relative mode
M104 S170 ; set extruder temp for bed leveling
M140 S60 ; set bed temp
M109 R170 ; wait for bed leveling temp
M190 S60 ; wait for bed temp
M204 T1250 ; set travel acceleration
G28 ; home all without mesh bed level
G29 ; mesh bed leveling 
M204 T2500 ; restore travel acceleration
M104 S215 ; set extruder temp
G92 E0
G1 Y-2 X179 F2400
G1 Z3 F720
M109 S215 ; wait for extruder temp

; intro line
G1 X170 F1000
G1 Z0.2 F720
G1 X110 E8 F900
G1 X40 E10 F700
G92 E0

M221 S95 ; set flow
G21 ; set units to millimeters
G90 ; use absolute coordinates
M83 ; use relative distances for extrusion
M900 K0.2 ; Filament gcode LA 1.5
; ; Filament gcode LA 1.0
M107
;LAYER_CHANGE
;Z:0.2
;HEIGHT:0.2
;BEFORE_LAYER_CHANGE
G92 E0.0
;0.2


M73 P1 R10
G1 E-3.2 F4200
M73 P2 R10
G1 Z.2 F720
;AFTER_LAYER_CHANGE
;0.2
G1 Z.4
G1 X72.06 Y107.939 F9000
G1 Z.2 F720
G1 E3.2 F2400
M204 P800
;TYPE:Skirt/Brim
;WIDTH:0.42
G1 F1200
G1 X73 Y107.745 E.03008
G1 X107 Y107.745 E1.06605
G1 X108.307 Y108.137 E.04278
G1 X109.183 Y109.182 E.04278
G1 X109.377 Y110.122 E.03008
G1 X109.377 Y154.122 E1.37959
G1 X108.985 Y155.429 E.04278
M73 P3 R10
G1 X107.94 Y156.306 E.04278
G1 X107 Y156.499 E.03008
G1 X73 Y156.499 E1.06605
G1 X71.693 Y156.108 E.04278
G1 X70.817 Y155.062 E.04278
G1 X70.623 Y154.122 E.03008
G1 X70.623 Y110.122 E1.37959
G1 X71.015 Y108.815 E.04278
G1 X72.014 Y107.977 E.0409
M204 P1000
; printing object OLED-Spacer1.stl id:0 copy 0
G1 E-2.24 F4200
;WIPE_START
G1 F7200
G1 X73 Y107.745 E-.56121
G1 X73.633 Y107.745 E-.35079
;WIPE_END
G1 E-.048 F4200
G1 Z.4 F720
G1 X103.772 Y150.417 F9000
G1 Z.2 F720
G1 E3.2 F2400
M204 P800
;TYPE:Perimeter
;WIDTH:0.419999
G1 F1200
G1 X103.787 Y150.344 E.00236
G1 X103.787 Y140.909 E.29581
G1 X106.213 Y140.909 E.07606
M73 P4 R10
G1 X106.213 Y153.335 E.3896
G1 X73.787 Y153.335 E1.01669
G1 X73.787 Y110.909 E1.33023
G1 X106.213 Y110.909 E1.01669
G1 X106.213 Y122.335 E.35825
G1 X103.787 Y122.335 E.07606
M73 P5 R10
G1 X103.787 Y113.901 E.26445
G1 X103.741 Y113.676 E.00719
G1 X103.621 Y113.501 E.00665
G1 X103.446 Y113.382 E.00665
G1 X103.221 Y113.335 E.00719
G1 X78.779 Y113.335 E.76639
G1 X78.507 Y113.405 E.00879
G1 X78.32 Y113.57 E.00783
G1 X78.232 Y113.754 E.00641
G1 X78.213 Y113.901 E.00462
G1 X78.213 Y122.335 E.26445
G1 X76.779 Y122.335 E.04497
G1 X76.62 Y122.358 E.00502
G1 X76.439 Y122.448 E.00634
G1 X76.279 Y122.635 E.00769
G1 X76.213 Y122.901 E.0086
G1 X76.213 Y140.344 E.54691
G1 X76.279 Y140.61 E.0086
G1 X76.439 Y140.796 E.00769
G1 X76.62 Y140.887 E.00634
G1 X76.779 Y140.909 E.00502
G1 X78.213 Y140.909 E.04497
G1 X78.213 Y150.344 E.29581
G1 X78.221 Y150.441 E.00308
G1 X78.32 Y150.674 E.00793
G1 X78.507 Y150.84 E.00783
G1 X78.779 Y150.909 E.00879
G1 X103.221 Y150.909 E.76639
G1 X103.319 Y150.901 E.00308
G1 X103.621 Y150.744 E.01068
G1 X103.741 Y150.568 E.00665
G1 X103.76 Y150.476 E.00295
M204 P1000
G1 X103.41 Y150.344 F9000
M204 P800
;TYPE:External perimeter
G1 F1200
G1 X103.41 Y140.532 E.30763
G1 X106.59 Y140.532 E.09971
G1 X106.59 Y153.712 E.41325
G1 X73.41 Y153.712 E1.04033
M73 P6 R10
G1 X73.41 Y110.532 E1.35388
G1 X106.59 Y110.532 E1.04033
G1 X106.59 Y122.712 E.38189
G1 X103.41 Y122.712 E.09971
G1 X103.41 Y113.901 E.27628
M73 P7 R10
G1 X103.355 Y113.767 E.00452
G1 X103.221 Y113.712 E.00452
G1 X78.779 Y113.712 E.76639
G1 X78.626 Y113.79 E.00539
G1 X78.59 Y113.901 E.00363
G1 X78.59 Y122.712 E.27628
G1 X76.779 Y122.712 E.0568
G1 X76.665 Y122.75 E.00374
G1 X76.59 Y122.901 E.00529
G1 X76.59 Y140.344 E.54691
G1 X76.665 Y140.494 E.00529
G1 X76.779 Y140.532 E.00374
G1 X78.59 Y140.532 E.0568
G1 X78.59 Y150.344 E.30763
G1 X78.626 Y150.454 E.00363
G1 X78.779 Y150.532 E.00539
G1 X103.221 Y150.532 E.76639
G1 X103.355 Y150.477 E.00452
G1 X103.387 Y150.399 E.00264
M204 P1000
G1 X103.796 Y150.24 F9000
G1 E-2.24 F4200
;WIPE_START
G1 F7200
G1 X103.391 Y148.753 E-.912
;WIPE_END
G1 E-.048 F4200
G1 Z.4 F720
G1 X105.334 Y111.022 F9000
G1 Z.2 F720
G1 E3.2 F2400
M204 P800
;TYPE:Solid infill
;WIDTH:0.421779
G1 F1200
G1 X105.93 Y111.619 E.02657
G1 X105.93 Y112.154 E.01688
G1 X104.968 Y111.192 E.04288
G1 X104.432 Y111.192 E.01688
G1 X105.93 Y112.69 E.06675
G1 X105.93 Y113.226 E.01688
G1 X103.896 Y111.192 E.09062
G1 X103.36 Y111.192 E.01688
G1 X105.93 Y113.762 E.11449
G1 X105.93 Y114.298 E.01688
G1 X102.825 Y111.192 E.13836
G1 X102.289 Y111.192 E.01688
M73 P8 R10
G1 X105.93 Y114.833 E.16223
G1 X105.93 Y115.369 E.01688
G1 X101.753 Y111.192 E.1861
G1 X101.217 Y111.192 E.01688
G1 X103.077 Y113.052 E.08288
G1 X103.231 Y113.052 E.00484
G1 X103.558 Y113.12 E.01053
G1 X103.823 Y113.3 E.01006
G1 X104.002 Y113.564 E.01006
G1 X104.07 Y113.891 E.01053
G1 X104.07 Y114.045 E.00484
G1 X105.93 Y115.905 E.08288
G1 X105.93 Y116.441 E.01688
G1 X104.07 Y114.581 E.08288
G1 X104.07 Y115.116 E.01688
G1 X105.93 Y116.977 E.08288
G1 X105.93 Y117.512 E.01688
G1 X104.07 Y115.652 E.08288
G1 X104.07 Y116.188 E.01688
M73 P8 R9
G1 X105.93 Y118.048 E.08288
G1 X105.93 Y118.584 E.01688
G1 X104.07 Y116.724 E.08288
G1 X104.07 Y117.259 E.01688
G1 X105.93 Y119.12 E.08288
G1 X105.93 Y119.655 E.01688
G1 X104.07 Y117.795 E.08288
G1 X104.07 Y118.331 E.01688
G1 X105.93 Y120.191 E.08288
G1 X105.93 Y120.727 E.01688
G1 X104.07 Y118.867 E.08288
G1 X104.07 Y119.403 E.01688
G1 X105.93 Y121.263 E.08288
G1 X105.93 Y121.799 E.01688
G1 X104.07 Y119.938 E.08288
G1 X104.07 Y120.474 E.01688
G1 X105.648 Y122.052 E.0703
G1 X105.112 Y122.052 E.01688
G1 X104.07 Y121.01 E.04643
G1 X104.07 Y121.546 E.01688
G1 X104.746 Y122.222 E.03012
M204 P1000
G1 E-2.24 F4200
;WIPE_START
G1 F7200
G1 X104.07 Y121.546 E-.52993
G1 X104.07 Y121.01 E-.29692
G1 X104.179 Y121.119 E-.08516
;WIPE_END
G1 E-.048 F4200
G1 Z.4 F720
G1 X100.512 Y111.022 F9000
G1 Z.2 F720
G1 E3.2 F2400
M204 P800
G1 F1200
G1 X102.542 Y113.052 E.09044
G1 X102.006 Y113.052 E.01688
G1 X100.146 Y111.192 E.08288
G1 X99.61 Y111.192 E.01688
G1 X101.47 Y113.052 E.08288
G1 X100.934 Y113.052 E.01688
G1 X99.074 Y111.192 E.08288
G1 X98.538 Y111.192 E.01688
G1 X100.398 Y113.052 E.08288
G1 X99.863 Y113.052 E.01688
G1 X98.002 Y111.192 E.08288
G1 X97.467 Y111.192 E.01688
G1 X99.327 Y113.052 E.08288
G1 X98.791 Y113.052 E.01688
G1 X96.931 Y111.192 E.08288
G1 X96.395 Y111.192 E.01688
G1 X98.255 Y113.052 E.08288
G1 X97.72 Y113.052 E.01688
G1 X95.859 Y111.192 E.08288
G1 X95.323 Y111.192 E.01688
G1 X97.184 Y113.052 E.08288
G1 X96.648 Y113.052 E.01688
G1 X94.788 Y111.192 E.08288
G1 X94.252 Y111.192 E.01688
G1 X96.112 Y113.052 E.08288
G1 X95.576 Y113.052 E.01688
G1 X93.716 Y111.192 E.08288
G1 X93.18 Y111.192 E.01688
G1 X95.041 Y113.052 E.08288
G1 X94.505 Y113.052 E.01688
G1 X92.645 Y111.192 E.08288
G1 X92.109 Y111.192 E.01688
M73 P9 R9
G1 X93.969 Y113.052 E.08288
G1 X93.433 Y113.052 E.01688
G1 X91.573 Y111.192 E.08288
G1 X91.037 Y111.192 E.01688
G1 X92.897 Y113.052 E.08288
G1 X92.362 Y113.052 E.01688
G1 X90.501 Y111.192 E.08288
G1 X89.966 Y111.192 E.01688
G1 X91.826 Y113.052 E.08288
G1 X91.29 Y113.052 E.01688
G1 X89.43 Y111.192 E.08288
G1 X88.894 Y111.192 E.01688
G1 X90.754 Y113.052 E.08288
G1 X90.218 Y113.052 E.01688
G1 X88.358 Y111.192 E.08288
G1 X87.822 Y111.192 E.01688
G1 X89.683 Y113.052 E.08288
G1 X89.147 Y113.052 E.01688
G1 X87.287 Y111.192 E.08288
G1 X86.751 Y111.192 E.01688
G1 X88.611 Y113.052 E.08288
G1 X88.075 Y113.052 E.01688
G1 X86.215 Y111.192 E.08288
G1 X85.679 Y111.192 E.01688
G1 X87.54 Y113.052 E.08288
G1 X87.004 Y113.052 E.01688
G1 X85.144 Y111.192 E.08288
G1 X84.608 Y111.192 E.01688
G1 X86.468 Y113.052 E.08288
G1 X85.932 Y113.052 E.01688
G1 X84.072 Y111.192 E.08288
G1 X83.536 Y111.192 E.01688
G1 X85.396 Y113.052 E.08288
G1 X84.861 Y113.052 E.01688
G1 X83 Y111.192 E.08288
G1 X82.465 Y111.192 E.01688
G1 X84.325 Y113.052 E.08288
G1 X83.789 Y113.052 E.01688
G1 X81.929 Y111.192 E.08288
G1 X81.393 Y111.192 E.01688
G1 X83.253 Y113.052 E.08288
G1 X82.717 Y113.052 E.01688
G1 X80.857 Y111.192 E.08288
G1 X80.321 Y111.192 E.01688
G1 X82.182 Y113.052 E.08288
G1 X81.646 Y113.052 E.01688
G1 X79.786 Y111.192 E.08288
G1 X79.25 Y111.192 E.01688
G1 X81.11 Y113.052 E.08288
G1 X80.574 Y113.052 E.01688
G1 X78.714 Y111.192 E.08288
G1 X78.178 Y111.192 E.01688
G1 X80.039 Y113.052 E.08288
G1 X79.503 Y113.052 E.01688
G1 X77.643 Y111.192 E.08288
G1 X77.107 Y111.192 E.01688
G1 X78.967 Y113.052 E.08288
G1 X78.628 Y113.065 E.01068
G1 X78.492 Y113.113 E.00456
G1 X76.571 Y111.192 E.08558
G1 X76.035 Y111.192 E.01688
G1 X78.172 Y113.329 E.09521
G1 X78.09 Y113.402 E.00346
G1 X77.967 Y113.66 E.00901
G1 X75.499 Y111.192 E.10995
G1 X74.964 Y111.192 E.01688
G1 X77.93 Y114.159 E.13216
G1 X77.93 Y114.694 E.01688
G1 X74.428 Y111.192 E.15603
G1 X74.07 Y111.192 E.01127
G1 X74.07 Y111.37 E.0056
G1 X77.93 Y115.23 E.17198
G1 X77.93 Y115.766 E.01688
M73 P10 R9
G1 X74.07 Y111.906 E.17198
G1 X74.07 Y112.441 E.01688
G1 X77.93 Y116.302 E.17198
G1 X77.93 Y116.837 E.01688
G1 X74.07 Y112.977 E.17198
G1 X74.07 Y113.513 E.01688
G1 X77.93 Y117.373 E.17198
G1 X77.93 Y117.909 E.01688
G1 X74.07 Y114.049 E.17198
G1 X74.07 Y114.585 E.01688
G1 X77.93 Y118.445 E.17198
G1 X77.93 Y118.981 E.01688
G1 X74.07 Y115.12 E.17198
G1 X74.07 Y115.656 E.01688
G1 X77.93 Y119.516 E.17198
G1 X77.93 Y120.052 E.01688
G1 X74.07 Y116.192 E.17198
G1 X74.07 Y116.728 E.01688
G1 X77.93 Y120.588 E.17198
G1 X77.93 Y121.124 E.01688
G1 X74.07 Y117.264 E.17198
G1 X74.07 Y117.799 E.01688
G1 X77.93 Y121.66 E.17198
G1 X77.93 Y122.052 E.01237
G1 X77.787 Y122.052 E.00451
G1 X74.07 Y118.335 E.1656
G1 X74.07 Y118.871 E.01688
G1 X77.251 Y122.052 E.14173
G1 X76.722 Y122.059 E.01666
G1 X74.07 Y119.407 E.11818
G1 X74.07 Y119.942 E.01688
G1 X76.322 Y122.194 E.10032
G1 X76.267 Y122.222 E.00193
G1 X76.057 Y122.466 E.01013
G1 X74.07 Y120.478 E.08855
G1 X74.07 Y121.014 E.01688
G1 X75.933 Y122.877 E.08301
G1 X75.93 Y123.41 E.01679
G1 X74.07 Y121.55 E.08288
G1 X74.07 Y122.086 E.01688
G1 X75.93 Y123.946 E.08288
G1 X75.93 Y124.482 E.01688
G1 X74.07 Y122.621 E.08288
G1 X74.07 Y123.157 E.01688
G1 X75.93 Y125.017 E.08288
G1 X75.93 Y125.553 E.01688
G1 X74.07 Y123.693 E.08288
G1 X74.07 Y124.229 E.01688
G1 X75.93 Y126.089 E.08288
G1 X75.93 Y126.625 E.01688
G1 X74.07 Y124.765 E.08288
G1 X74.07 Y125.3 E.01688
G1 X75.93 Y127.161 E.08288
G1 X75.93 Y127.696 E.01688
G1 X74.07 Y125.836 E.08288
G1 X74.07 Y126.372 E.01688
M73 P11 R9
G1 X75.93 Y128.232 E.08288
G1 X75.93 Y128.768 E.01688
G1 X74.07 Y126.908 E.08288
G1 X74.07 Y127.444 E.01688
G1 X75.93 Y129.304 E.08288
G1 X75.93 Y129.84 E.01688
G1 X74.07 Y127.979 E.08288
G1 X74.07 Y128.515 E.01688
G1 X75.93 Y130.375 E.08288
G1 X75.93 Y130.911 E.01688
G1 X74.07 Y129.051 E.08288
G1 X74.07 Y129.587 E.01688
G1 X75.93 Y131.447 E.08288
G1 X75.93 Y131.983 E.01688
G1 X74.07 Y130.122 E.08288
G1 X74.07 Y130.658 E.01688
G1 X75.93 Y132.518 E.08288
G1 X75.93 Y133.054 E.01688
G1 X74.07 Y131.194 E.08288
G1 X74.07 Y131.73 E.01688
G1 X75.93 Y133.59 E.08288
G1 X75.93 Y134.126 E.01688
G1 X74.07 Y132.266 E.08288
G1 X74.07 Y132.801 E.01688
G1 X75.93 Y134.662 E.08288
G1 X75.93 Y135.197 E.01688
G1 X74.07 Y133.337 E.08288
G1 X74.07 Y133.873 E.01688
G1 X75.93 Y135.733 E.08288
G1 X75.93 Y136.269 E.01688
G1 X74.07 Y134.409 E.08288
G1 X74.07 Y134.945 E.01688
G1 X75.93 Y136.805 E.08288
G1 X75.93 Y137.341 E.01688
G1 X74.07 Y135.48 E.08288
G1 X74.07 Y136.016 E.01688
G1 X75.93 Y137.876 E.08288
G1 X75.93 Y138.412 E.01688
G1 X74.07 Y136.552 E.08288
G1 X74.07 Y137.088 E.01688
G1 X75.93 Y138.948 E.08288
G1 X75.93 Y139.484 E.01688
G1 X74.07 Y137.623 E.08288
G1 X74.07 Y138.159 E.01688
G1 X76.1 Y140.189 E.09044
M204 P1000
G1 E-2.24 F4200
;WIPE_START
G1 F7200
G1 X74.936 Y139.025 E-.912
;WIPE_END
G1 E-.048 F4200
G1 Z.4 F720
G1 X77.469 Y141.022 F9000
G1 Z.2 F720
G1 E3.2 F2400
M204 P800
G1 F1200
G1 X77.93 Y141.484 E.02056
G1 X77.93 Y142.02 E.01688
G1 X76.933 Y141.022 E.04443
M204 P1000
G1 E-2.24 F4200
;WIPE_START
G1 F7200
G1 X77.93 Y142.02 E-.78151
G1 X77.93 Y141.784 E-.13049
;WIPE_END
G1 E-.048 F4200
G1 Z.4 F720
G1 X78.1 Y142.725 F9000
G1 Z.2 F720
G1 E3.2 F2400
M204 P800
G1 F1200
G1 X74.07 Y138.695 E.17954
G1 X74.07 Y139.231 E.01688
G1 X77.93 Y143.091 E.17198
G1 X77.93 Y143.627 E.01688
G1 X74.07 Y139.767 E.17198
G1 X74.07 Y140.302 E.01688
G1 X77.93 Y144.163 E.17198
G1 X77.93 Y144.698 E.01688
G1 X74.07 Y140.838 E.17198
G1 X74.07 Y141.374 E.01688
G1 X77.93 Y145.234 E.17198
M73 P12 R9
G1 X77.93 Y145.77 E.01688
G1 X74.07 Y141.91 E.17198
G1 X74.07 Y142.446 E.01688
G1 X77.93 Y146.306 E.17198
G1 X77.93 Y146.842 E.01688
G1 X74.07 Y142.981 E.17198
G1 X74.07 Y143.517 E.01688
G1 X77.93 Y147.377 E.17198
G1 X77.93 Y147.913 E.01688
G1 X74.07 Y144.053 E.17198
G1 X74.07 Y144.589 E.01688
G1 X77.93 Y148.449 E.17198
G1 X77.93 Y148.985 E.01688
G1 X74.07 Y145.124 E.17198
G1 X74.07 Y145.66 E.01688
G1 X77.93 Y149.521 E.17198
G1 X77.93 Y150.056 E.01688
G1 X73.9 Y146.026 E.17954
M204 P1000
G1 E-2.24 F4200
;WIPE_START
G1 F7200
G1 X75.064 Y147.19 E-.912
;WIPE_END
G1 E-.048 F4200
G1 Z.4 F720
G1 X105.33 Y141.022 F9000
G1 Z.2 F720
G1 E3.2 F2400
M204 P800
G1 F1200
G1 X105.93 Y141.623 E.02675
G1 X105.93 Y142.159 E.01688
G1 X104.964 Y141.192 E.04306
G1 X104.428 Y141.192 E.01688
G1 X105.93 Y142.694 E.06693
G1 X105.93 Y143.23 E.01688
G1 X104.07 Y141.37 E.08288
G1 X104.07 Y141.906 E.01688
G1 X105.93 Y143.766 E.08288
G1 X105.93 Y144.302 E.01688
G1 X104.07 Y142.441 E.08288
G1 X104.07 Y142.977 E.01688
G1 X105.93 Y144.837 E.08288
G1 X105.93 Y145.373 E.01688
G1 X104.07 Y143.513 E.08288
G1 X104.07 Y144.049 E.01688
G1 X105.93 Y145.909 E.08288
G1 X105.93 Y146.445 E.01688
G1 X104.07 Y144.585 E.08288
G1 X104.07 Y145.12 E.01688
G1 X105.93 Y146.981 E.08288
G1 X105.93 Y147.516 E.01688
G1 X104.07 Y145.656 E.08288
G1 X104.07 Y146.192 E.01688
G1 X105.93 Y148.052 E.08288
G1 X105.93 Y148.588 E.01688
G1 X104.07 Y146.728 E.08288
G1 X104.07 Y147.264 E.01688
G1 X105.93 Y149.124 E.08288
G1 X105.93 Y149.66 E.01688
G1 X104.07 Y147.799 E.08288
G1 X104.07 Y148.335 E.01688
G1 X105.93 Y150.195 E.08288
G1 X105.93 Y150.731 E.01688
G1 X104.07 Y148.871 E.08288
G1 X104.07 Y149.407 E.01688
M73 P13 R9
G1 X105.93 Y151.267 E.08288
G1 X105.93 Y151.803 E.01688
G1 X104.07 Y149.942 E.08288
G1 X104.059 Y150.468 E.01655
G1 X105.93 Y152.339 E.08334
G1 X105.93 Y152.874 E.01688
G1 X103.895 Y150.839 E.09069
G1 X103.823 Y150.945 E.00404
G1 X103.61 Y151.089 E.00812
G1 X105.572 Y153.052 E.08744
G1 X105.036 Y153.052 E.01688
G1 X103.176 Y151.192 E.08288
G1 X102.64 Y151.192 E.01688
G1 X104.501 Y153.052 E.08288
G1 X103.965 Y153.052 E.01688
G1 X102.105 Y151.192 E.08288
G1 X101.569 Y151.192 E.01688
G1 X103.429 Y153.052 E.08288
G1 X102.893 Y153.052 E.01688
G1 X101.033 Y151.192 E.08288
G1 X100.497 Y151.192 E.01688
G1 X102.358 Y153.052 E.08288
G1 X101.822 Y153.052 E.01688
G1 X99.962 Y151.192 E.08288
G1 X99.426 Y151.192 E.01688
G1 X101.286 Y153.052 E.08288
G1 X100.75 Y153.052 E.01688
G1 X98.89 Y151.192 E.08288
G1 X98.354 Y151.192 E.01688
G1 X100.214 Y153.052 E.08288
G1 X99.679 Y153.052 E.01688
G1 X97.818 Y151.192 E.08288
G1 X97.283 Y151.192 E.01688
G1 X99.143 Y153.052 E.08288
G1 X98.607 Y153.052 E.01688
G1 X96.747 Y151.192 E.08288
G1 X96.211 Y151.192 E.01688
G1 X98.071 Y153.052 E.08288
G1 X97.535 Y153.052 E.01688
G1 X95.675 Y151.192 E.08288
G1 X95.139 Y151.192 E.01688
G1 X97 Y153.052 E.08288
G1 X96.464 Y153.052 E.01688
G1 X94.604 Y151.192 E.08288
G1 X94.068 Y151.192 E.01688
G1 X95.928 Y153.052 E.08288
G1 X95.392 Y153.052 E.01688
G1 X93.532 Y151.192 E.08288
