; generated by PrusaSlicer 2.5.0+win64 on 2023-01-09 at 13:01:40 UTC


;
;

;
;
; 

; external perimeters extrusion width = 0.45mm
; perimeters extrusion width = 0.45mm
; infill extrusion width = 0.45mm
; solid infill extrusion width = 0.45mm
; top infill extrusion width = 0.40mm
; first layer extrusion width = 0.42mm

M73 P0 R10
M201 X2500 Y2500 Z400 E5000 ; sets maximum accelerations, mm/sec^2
M203 X180 Y180 Z12 E80 ; sets maximum feedrates, mm / sec
M204 P1250 R1250 T2500 ; sets acceleration (P, T) and retract acceleration (R), mm/sec^2
M205 X8.00 Y8.00 Z2.00 E10.00 ; sets the jerk limits, mm/sec
M205 S0 T0 ; sets the minimum extruding and travel feed rate, mm/sec
M107
;TYPE:Custom
M862.3 P "MINI" ; printer model check
G90 ; use absolute coordinates
M83 ; extruder relative mode
M104 S170 ; set extruder temp for bed leveling
M140 S60 ; set bed temp
M109 R170 ; wait for bed leveling temp
M190 S60 ; wait for bed temp
M204 T1250 ; set travel acceleration
G28 ; home all without mesh bed level
G29 ; mesh bed leveling 
M204 T2500 ; restore travel acceleration
M104 S215 ; set extruder temp
G92 E0
G1 Y-2 X179 F2400
G1 Z3 F720
M109 S215 ; wait for extruder temp

; intro line
G1 X170 F1000
G1 Z0.2 F720
G1 X110 E8 F900
G1 X40 E10 F700
G92 E0

M221 S95 ; set flow
G21 ; set units to millimeters
G90 ; use absolute coordinates
M83 ; use relative distances for extrusion
M900 K0.2 ; Filament gcode LA 1.5
; ; Filament gcode LA 1.0
M107
;LAYER_CHANGE
;Z:0.2
;HEIGHT:0.2
;BEFORE_LAYER_CHANGE
G92 E0.0
;0.2


M73 P1 R10
G1 E-3.2 F4200
M73 P2 R10
G1 Z.2 F720
;AFTER_LAYER_CHANGE
;0.2
G1 Z.4
G1 X71.015 Y66.693 F9000
G1 Z.2 F720
G1 E3.2 F2400
M204 P800
;TYPE:Skirt/Brim
;WIDTH:0.42
G1 F1200
G1 X72.06 Y65.817 E.04278
G1 X73 Y65.623 E.03008
G1 X107 Y65.623 E1.06605
G1 X108.307 Y66.015 E.04278
G1 X109.183 Y67.06 E.04278
G1 X109.377 Y68 E.03008
G1 X109.377 Y112 E1.37959
G1 X108.985 Y113.307 E.04278
M73 P3 R10
G1 X107.94 Y114.183 E.04278
G1 X107 Y114.377 E.03008
G1 X73 Y114.377 E1.06605
G1 X71.693 Y113.985 E.04278
G1 X70.817 Y112.94 E.04278
G1 X70.623 Y112 E.03008
G1 X70.623 Y68 E1.37959
G1 X70.997 Y66.75 E.0409
M204 P1000
; printing object OLED-Spacer1.stl id:0 copy 0
G1 E-2.24 F4200
;WIPE_START
G1 F7200
G1 X72.06 Y65.817 E-.78411
G1 X72.286 Y65.77 E-.12789
;WIPE_END
G1 E-.048 F4200
G1 Z.4 F720
G1 X78.22 Y71.727 F9000
G1 Z.2 F720
G1 E3.2 F2400
M204 P800
;TYPE:Perimeter
;WIDTH:0.419999
G1 F1200
G1 X78.213 Y80.213 E.26607
G1 X76.779 Y80.213 E.04497
G1 X76.62 Y80.236 E.00502
G1 X76.439 Y80.326 E.00634
G1 X76.279 Y80.512 E.00769
G1 X76.213 Y80.779 E.0086
G1 X76.213 Y98.221 E.54691
G1 X76.279 Y98.488 E.0086
M73 P4 R10
G1 X76.439 Y98.674 E.00769
G1 X76.62 Y98.764 E.00634
G1 X76.779 Y98.787 E.00502
G1 X78.213 Y98.787 E.04497
G1 X78.213 Y108.221 E.29581
G1 X78.221 Y108.319 E.00308
G1 X78.32 Y108.552 E.00793
G1 X78.507 Y108.718 E.00783
G1 X78.779 Y108.787 E.00879
G1 X103.319 Y108.779 E.76945
G1 X103.621 Y108.621 E.01068
G1 X103.741 Y108.446 E.00665
G1 X103.787 Y108.221 E.00719
G1 X103.787 Y98.787 E.29581
G1 X106.213 Y98.787 E.07606
G1 X106.213 Y111.213 E.3896
G1 X73.787 Y111.213 E1.01669
G1 X73.787 Y68.787 E1.33023
G1 X106.213 Y68.787 E1.01669
M73 P5 R10
G1 X106.213 Y80.213 E.35825
G1 X103.787 Y80.213 E.07606
G1 X103.787 Y71.779 E.26445
G1 X103.741 Y71.554 E.00719
G1 X103.621 Y71.379 E.00665
G1 X103.446 Y71.259 E.00665
G1 X103.221 Y71.213 E.00719
G1 X78.779 Y71.213 E.76639
G1 X78.507 Y71.282 E.00879
G1 X78.32 Y71.448 E.00783
G1 X78.228 Y71.667 E.00747
M204 P1000
G1 X78.59 Y71.779 F9000
M204 P800
;TYPE:External perimeter
G1 F1200
G1 X78.59 Y80.59 E.27628
G1 X76.779 Y80.59 E.0568
G1 X76.665 Y80.628 E.00374
G1 X76.59 Y80.779 E.00529
G1 X76.59 Y98.221 E.54691
G1 X76.665 Y98.372 E.00529
M73 P6 R10
G1 X76.779 Y98.41 E.00374
G1 X78.59 Y98.41 E.0568
G1 X78.59 Y108.221 E.30763
G1 X78.626 Y108.332 E.00363
G1 X78.779 Y108.41 E.00539
G1 X103.221 Y108.41 E.76639
G1 X103.355 Y108.355 E.00452
G1 X103.41 Y108.221 E.00452
G1 X103.41 Y98.41 E.30763
G1 X106.59 Y98.41 E.09971
G1 X106.59 Y111.59 E.41325
G1 X73.41 Y111.59 E1.04033
G1 X73.41 Y68.41 E1.35388
G1 X106.59 Y68.41 E1.04033
M73 P7 R10
G1 X106.59 Y80.59 E.38189
G1 X103.41 Y80.59 E.09971
G1 X103.41 Y71.779 E.27628
G1 X103.355 Y71.645 E.00452
G1 X103.221 Y71.59 E.00452
G1 X78.779 Y71.59 E.76639
G1 X78.626 Y71.668 E.00539
G1 X78.608 Y71.721 E.00175
M204 P1000
G1 X78.204 Y71.882 F9000
G1 E-2.24 F4200
;WIPE_START
G1 F7200
G1 X78.605 Y73.367 E-.912
;WIPE_END
G1 E-.048 F4200
G1 Z.4 F720
G1 X105.334 Y68.9 F9000
G1 Z.2 F720
G1 E3.2 F2400
M204 P800
;TYPE:Solid infill
;WIDTH:0.421779
G1 F1200
G1 X105.93 Y69.497 E.02657
G1 X105.93 Y70.032 E.01688
G1 X104.968 Y69.07 E.04288
G1 X104.432 Y69.07 E.01688
G1 X105.93 Y70.568 E.06675
G1 X105.93 Y71.104 E.01688
M73 P7 R9
G1 X103.896 Y69.07 E.09062
G1 X103.36 Y69.07 E.01688
G1 X105.93 Y71.64 E.11449
G1 X105.93 Y72.175 E.01688
G1 X102.825 Y69.07 E.13836
G1 X102.289 Y69.07 E.01688
G1 X105.93 Y72.711 E.16223
G1 X105.93 Y73.247 E.01688
M73 P8 R9
G1 X101.753 Y69.07 E.1861
G1 X101.217 Y69.07 E.01688
G1 X103.077 Y70.93 E.08288
G1 X103.231 Y70.93 E.00484
G1 X103.558 Y70.998 E.01053
G1 X103.823 Y71.177 E.01006
G1 X104.002 Y71.442 E.01006
G1 X104.07 Y71.769 E.01053
G1 X104.07 Y71.923 E.00484
G1 X105.93 Y73.783 E.08288
G1 X105.93 Y74.319 E.01688
G1 X104.07 Y72.458 E.08288
G1 X104.07 Y72.994 E.01688
G1 X105.93 Y74.854 E.08288
G1 X105.93 Y75.39 E.01688
G1 X104.07 Y73.53 E.08288
G1 X104.07 Y74.066 E.01688
G1 X105.93 Y75.926 E.08288
G1 X105.93 Y76.462 E.01688
G1 X104.07 Y74.602 E.08288
G1 X104.07 Y75.137 E.01688
G1 X105.93 Y76.998 E.08288
G1 X105.93 Y77.533 E.01688
G1 X104.07 Y75.673 E.08288
G1 X104.07 Y76.209 E.01688
G1 X105.93 Y78.069 E.08288
G1 X105.93 Y78.605 E.01688
G1 X104.07 Y76.745 E.08288
G1 X104.07 Y77.28 E.01688
G1 X105.93 Y79.141 E.08288
G1 X105.93 Y79.677 E.01688
G1 X104.07 Y77.816 E.08288
G1 X104.07 Y78.352 E.01688
G1 X105.648 Y79.93 E.0703
G1 X105.112 Y79.93 E.01688
G1 X104.07 Y78.888 E.04643
G1 X104.07 Y79.424 E.01688
G1 X104.746 Y80.1 E.03012
M204 P1000
G1 E-2.24 F4200
;WIPE_START
G1 F7200
G1 X104.07 Y79.424 E-.52993
G1 X104.07 Y78.888 E-.29692
G1 X104.179 Y78.996 E-.08516
;WIPE_END
G1 E-.048 F4200
G1 Z.4 F720
G1 X100.512 Y68.9 F9000
G1 Z.2 F720
G1 E3.2 F2400
M204 P800
G1 F1200
G1 X102.542 Y70.93 E.09044
G1 X102.006 Y70.93 E.01688
G1 X100.146 Y69.07 E.08288
G1 X99.61 Y69.07 E.01688
G1 X101.47 Y70.93 E.08288
G1 X100.934 Y70.93 E.01688
G1 X99.074 Y69.07 E.08288
G1 X98.538 Y69.07 E.01688
G1 X100.398 Y70.93 E.08288
G1 X99.863 Y70.93 E.01688
G1 X98.002 Y69.07 E.08288
G1 X97.467 Y69.07 E.01688
G1 X99.327 Y70.93 E.08288
G1 X98.791 Y70.93 E.01688
G1 X96.931 Y69.07 E.08288
G1 X96.395 Y69.07 E.01688
G1 X98.255 Y70.93 E.08288
G1 X97.72 Y70.93 E.01688
G1 X95.859 Y69.07 E.08288
G1 X95.323 Y69.07 E.01688
G1 X97.184 Y70.93 E.08288
G1 X96.648 Y70.93 E.01688
G1 X94.788 Y69.07 E.08288
G1 X94.252 Y69.07 E.01688
G1 X96.112 Y70.93 E.08288
G1 X95.576 Y70.93 E.01688
G1 X93.716 Y69.07 E.08288
G1 X93.18 Y69.07 E.01688
G1 X95.041 Y70.93 E.08288
G1 X94.505 Y70.93 E.01688
G1 X92.645 Y69.07 E.08288
G1 X92.109 Y69.07 E.01688
G1 X93.969 Y70.93 E.08288
G1 X93.433 Y70.93 E.01688
G1 X91.573 Y69.07 E.08288
G1 X91.037 Y69.07 E.01688
M73 P9 R9
G1 X92.897 Y70.93 E.08288
G1 X92.362 Y70.93 E.01688
G1 X90.501 Y69.07 E.08288
G1 X89.966 Y69.07 E.01688
G1 X91.826 Y70.93 E.08288
G1 X91.29 Y70.93 E.01688
G1 X89.43 Y69.07 E.08288
G1 X88.894 Y69.07 E.01688
G1 X90.754 Y70.93 E.08288
G1 X90.218 Y70.93 E.01688
G1 X88.358 Y69.07 E.08288
G1 X87.822 Y69.07 E.01688
G1 X89.683 Y70.93 E.08288
G1 X89.147 Y70.93 E.01688
G1 X87.287 Y69.07 E.08288
G1 X86.751 Y69.07 E.01688
G1 X88.611 Y70.93 E.08288
G1 X88.075 Y70.93 E.01688
G1 X86.215 Y69.07 E.08288
G1 X85.679 Y69.07 E.01688
G1 X87.54 Y70.93 E.08288
G1 X87.004 Y70.93 E.01688
G1 X85.144 Y69.07 E.08288
G1 X84.608 Y69.07 E.01688
G1 X86.468 Y70.93 E.08288
G1 X85.932 Y70.93 E.01688
G1 X84.072 Y69.07 E.08288
G1 X83.536 Y69.07 E.01688
G1 X85.396 Y70.93 E.08288
G1 X84.861 Y70.93 E.01688
G1 X83 Y69.07 E.08288
G1 X82.465 Y69.07 E.01688
G1 X84.325 Y70.93 E.08288
G1 X83.789 Y70.93 E.01688
G1 X81.929 Y69.07 E.08288
G1 X81.393 Y69.07 E.01688
G1 X83.253 Y70.93 E.08288
G1 X82.717 Y70.93 E.01688
G1 X80.857 Y69.07 E.08288
G1 X80.321 Y69.07 E.01688
G1 X82.182 Y70.93 E.08288
G1 X81.646 Y70.93 E.01688
G1 X79.786 Y69.07 E.08288
G1 X79.25 Y69.07 E.01688
G1 X81.11 Y70.93 E.08288
G1 X80.574 Y70.93 E.01688
G1 X78.714 Y69.07 E.08288
G1 X78.178 Y69.07 E.01688
G1 X80.039 Y70.93 E.08288
G1 X79.503 Y70.93 E.01688
G1 X77.643 Y69.07 E.08288
G1 X77.107 Y69.07 E.01688
G1 X78.967 Y70.93 E.08288
G1 X78.628 Y70.943 E.01068
G1 X78.492 Y70.991 E.00456
G1 X76.571 Y69.07 E.08558
G1 X76.035 Y69.07 E.01688
G1 X78.172 Y71.207 E.09521
G1 X78.09 Y71.28 E.00346
G1 X77.967 Y71.538 E.00901
G1 X75.499 Y69.07 E.10995
G1 X74.964 Y69.07 E.01688
G1 X77.93 Y72.036 E.13216
G1 X77.93 Y72.572 E.01688
G1 X74.428 Y69.07 E.15603
G1 X74.07 Y69.07 E.01127
G1 X74.07 Y69.248 E.0056
G1 X77.93 Y73.108 E.17198
G1 X77.93 Y73.644 E.01688
G1 X74.07 Y69.784 E.17198
G1 X74.07 Y70.319 E.01688
G1 X77.93 Y74.18 E.17198
M73 P10 R9
G1 X77.93 Y74.715 E.01688
G1 X74.07 Y70.855 E.17198
G1 X74.07 Y71.391 E.01688
G1 X77.93 Y75.251 E.17198
G1 X77.93 Y75.787 E.01688
G1 X74.07 Y71.927 E.17198
G1 X74.07 Y72.462 E.01688
G1 X77.93 Y76.323 E.17198
G1 X77.93 Y76.859 E.01688
G1 X74.07 Y72.998 E.17198
G1 X74.07 Y73.534 E.01688
G1 X77.93 Y77.394 E.17198
G1 X77.93 Y77.93 E.01688
G1 X74.07 Y74.07 E.17198
G1 X74.07 Y74.606 E.01688
G1 X77.93 Y78.466 E.17198
G1 X77.93 Y79.002 E.01688
G1 X74.07 Y75.141 E.17198
G1 X74.07 Y75.677 E.01688
G1 X77.93 Y79.537 E.17198
G1 X77.93 Y79.93 E.01237
G1 X77.787 Y79.93 E.00451
G1 X74.07 Y76.213 E.1656
G1 X74.07 Y76.749 E.01688
G1 X77.251 Y79.93 E.14173
G1 X76.722 Y79.937 E.01666
G1 X74.07 Y77.285 E.11818
G1 X74.07 Y77.82 E.01688
G1 X76.322 Y80.072 E.10032
G1 X76.267 Y80.1 E.00193
G1 X76.057 Y80.344 E.01013
G1 X74.07 Y78.356 E.08855
G1 X74.07 Y78.892 E.01688
G1 X75.933 Y80.755 E.08301
G1 X75.93 Y81.288 E.01679
G1 X74.07 Y79.428 E.08288
G1 X74.07 Y79.964 E.01688
G1 X75.93 Y81.824 E.08288
G1 X75.93 Y82.36 E.01688
G1 X74.07 Y80.499 E.08288
G1 X74.07 Y81.035 E.01688
G1 X75.93 Y82.895 E.08288
G1 X75.93 Y83.431 E.01688
G1 X74.07 Y81.571 E.08288
G1 X74.07 Y82.107 E.01688
G1 X75.93 Y83.967 E.08288
G1 X75.93 Y84.503 E.01688
G1 X74.07 Y82.642 E.08288
G1 X74.07 Y83.178 E.01688
G1 X75.93 Y85.038 E.08288
G1 X75.93 Y85.574 E.01688
G1 X74.07 Y83.714 E.08288
G1 X74.07 Y84.25 E.01688
G1 X75.93 Y86.11 E.08288
G1 X75.93 Y86.646 E.01688
G1 X74.07 Y84.786 E.08288
M73 P11 R9
G1 X74.07 Y85.321 E.01688
G1 X75.93 Y87.182 E.08288
G1 X75.93 Y87.717 E.01688
G1 X74.07 Y85.857 E.08288
G1 X74.07 Y86.393 E.01688
G1 X75.93 Y88.253 E.08288
G1 X75.93 Y88.789 E.01688
G1 X74.07 Y86.929 E.08288
G1 X74.07 Y87.465 E.01688
G1 X75.93 Y89.325 E.08288
G1 X75.93 Y89.861 E.01688
G1 X74.07 Y88 E.08288
G1 X74.07 Y88.536 E.01688
G1 X75.93 Y90.396 E.08288
G1 X75.93 Y90.932 E.01688
G1 X74.07 Y89.072 E.08288
G1 X74.07 Y89.608 E.01688
G1 X75.93 Y91.468 E.08288
G1 X75.93 Y92.004 E.01688
G1 X74.07 Y90.143 E.08288
G1 X74.07 Y90.679 E.01688
G1 X75.93 Y92.54 E.08288
G1 X75.93 Y93.075 E.01688
G1 X74.07 Y91.215 E.08288
G1 X74.07 Y91.751 E.01688
G1 X75.93 Y93.611 E.08288
G1 X75.93 Y94.147 E.01688
G1 X74.07 Y92.287 E.08288
G1 X74.07 Y92.822 E.01688
G1 X75.93 Y94.683 E.08288
G1 X75.93 Y95.218 E.01688
G1 X74.07 Y93.358 E.08288
G1 X74.07 Y93.894 E.01688
G1 X75.93 Y95.754 E.08288
G1 X75.93 Y96.29 E.01688
G1 X74.07 Y94.43 E.08288
G1 X74.07 Y94.966 E.01688
G1 X75.93 Y96.826 E.08288
G1 X75.93 Y97.362 E.01688
G1 X74.07 Y95.501 E.08288
G1 X74.07 Y96.037 E.01688
G1 X76.1 Y98.067 E.09044
M204 P1000
G1 E-2.24 F4200
;WIPE_START
G1 F7200
G1 X74.936 Y96.903 E-.912
;WIPE_END
G1 E-.048 F4200
G1 Z.4 F720
G1 X77.469 Y98.9 F9000
G1 Z.2 F720
G1 E3.2 F2400
M204 P800
G1 F1200
G1 X77.93 Y99.362 E.02056
G1 X77.93 Y99.897 E.01688
G1 X76.933 Y98.9 E.04443
M204 P1000
G1 E-2.24 F4200
;WIPE_START
G1 F7200
G1 X77.93 Y99.897 E-.78151
G1 X77.93 Y99.662 E-.13049
;WIPE_END
G1 E-.048 F4200
G1 Z.4 F720
G1 X78.1 Y100.603 F9000
G1 Z.2 F720
G1 E3.2 F2400
M204 P800
G1 F1200
G1 X74.07 Y96.573 E.17954
G1 X74.07 Y97.109 E.01688
G1 X77.93 Y100.969 E.17198
G1 X77.93 Y101.505 E.01688
G1 X74.07 Y97.645 E.17198
G1 X74.07 Y98.18 E.01688
G1 X77.93 Y102.041 E.17198
G1 X77.93 Y102.576 E.01688
G1 X74.07 Y98.716 E.17198
G1 X74.07 Y99.252 E.01688
G1 X77.93 Y103.112 E.17198
G1 X77.93 Y103.648 E.01688
G1 X74.07 Y99.788 E.17198
M73 P12 R9
G1 X74.07 Y100.323 E.01688
G1 X77.93 Y104.184 E.17198
G1 X77.93 Y104.719 E.01688
G1 X74.07 Y100.859 E.17198
G1 X74.07 Y101.395 E.01688
G1 X77.93 Y105.255 E.17198
G1 X77.93 Y105.791 E.01688
G1 X74.07 Y101.931 E.17198
G1 X74.07 Y102.467 E.01688
G1 X77.93 Y106.327 E.17198
G1 X77.93 Y106.863 E.01688
G1 X74.07 Y103.002 E.17198
G1 X74.07 Y103.538 E.01688
G1 X77.93 Y107.398 E.17198
G1 X77.93 Y107.934 E.01688
G1 X73.9 Y103.904 E.17954
M204 P1000
G1 E-2.24 F4200
;WIPE_START
G1 F7200
G1 X75.064 Y105.068 E-.912
;WIPE_END
G1 E-.048 F4200
G1 Z.4 F720
G1 X105.33 Y98.9 F9000
G1 Z.2 F720
G1 E3.2 F2400
M204 P800
G1 F1200
G1 X105.93 Y99.501 E.02675
G1 X105.93 Y100.036 E.01688
G1 X104.964 Y99.07 E.04306
G1 X104.428 Y99.07 E.01688
G1 X105.93 Y100.572 E.06693
G1 X105.93 Y101.108 E.01688
G1 X104.07 Y99.248 E.08288
G1 X104.07 Y99.784 E.01688
G1 X105.93 Y101.644 E.08288
G1 X105.93 Y102.18 E.01688
G1 X104.07 Y100.319 E.08288
G1 X104.07 Y100.855 E.01688
G1 X105.93 Y102.715 E.08288
G1 X105.93 Y103.251 E.01688
G1 X104.07 Y101.391 E.08288
G1 X104.07 Y101.927 E.01688
G1 X105.93 Y103.787 E.08288
G1 X105.93 Y104.323 E.01688
G1 X104.07 Y102.462 E.08288
G1 X104.07 Y102.998 E.01688
G1 X105.93 Y104.859 E.08288
G1 X105.93 Y105.394 E.01688
G1 X104.07 Y103.534 E.08288
G1 X104.07 Y104.07 E.01688
G1 X105.93 Y105.93 E.08288
G1 X105.93 Y106.466 E.01688
G1 X104.07 Y104.606 E.08288
G1 X104.07 Y105.141 E.01688
G1 X105.93 Y107.002 E.08288
G1 X105.93 Y107.537 E.01688
G1 X104.07 Y105.677 E.08288
G1 X104.07 Y106.213 E.01688
G1 X105.93 Y108.073 E.08288
G1 X105.93 Y108.609 E.01688
G1 X104.07 Y106.749 E.08288
G1 X104.07 Y107.285 E.01688
G1 X105.93 Y109.145 E.08288
G1 X105.93 Y109.681 E.01688
G1 X104.07 Y107.82 E.08288
G1 X104.059 Y108.346 E.01655
M73 P13 R9
G1 X105.93 Y110.216 E.08334
G1 X105.93 Y110.752 E.01688
G1 X103.895 Y108.717 E.09069
G1 X103.823 Y108.823 E.00404
G1 X103.61 Y108.967 E.00812
G1 X105.572 Y110.93 E.08744
G1 X105.036 Y110.93 E.01688
G1 X103.176 Y109.07 E.08288
G1 X102.64 Y109.07 E.01688
G1 X104.501 Y110.93 E.08288
G1 X103.965 Y110.93 E.01688
G1 X102.105 Y109.07 E.08288
G1 X101.569 Y109.07 E.01688
G1 X103.429 Y110.93 E.08288
G1 X102.893 Y110.93 E.01688
G1 X101.033 Y109.07 E.08288
G1 X100.497 Y109.07 E.01688
G1 X102.358 Y110.93 E.08288
G1 X101.822 Y110.93 E.01688
G1 X99.962 Y109.07 E.08288
G1 X99.426 Y109.07 E.01688
G1 X101.286 Y110.93 E.08288
G1 X100.75 Y110.93 E.01688
G1 X98.89 Y109.07 E.08288
G1 X98.354 Y109.07 E.01688
G1 X100.214 Y110.93 E.08288
G1 X99.679 Y110.93 E.01688
G1 X97.818 Y109.07 E.08288
G1 X97.283 Y109.07 E.01688
G1 X99.143 Y110.93 E.08288
G1 X98.607 Y110.93 E.01688
G1 X96.747 Y109.07 E.08288
G1 X96.211 Y109.07 E.01688
G1 X98.071 Y110.93 E.08288
G1 X97.535 Y110.93 E.01688
G1 X95.675 Y109.07 E.08288
G1 X95.139 Y109.07 E.01688
G1 X97 Y110.93 E.08288
G1 X96.464 Y110.93 E.01688
G1 X94.604 Y109.07 E.08288
G1 X94.068 Y109.07 E.01688
G1 X95.928 Y110.93 E.08288
G1 X95.392 Y110.93 E.01688
G1 X93.532 Y109.07 E.08288
G1 X92.996 Y109.07 E.01688
G1 X94.857 Y110.93 E.08288
G1 X94.321 Y110.93 E.01688
G1 X92.46 Y109.07 E.08288
G1 X91.925 Y109.07 E.01688
G1 X93.785 Y110.93 E.08288
G1 X93.249 Y110.93 E.01688
G1 X91.389 Y109.07 E.08288
G1 X90.853 Y109.07 E.01688
G1 X92.713 Y110.93 E.08288
G1 X92.178 Y110.93 E.01688
G1 X90.317 Y109.07 E.08288
G1 X89.782 Y109.07 E.01688
G1 X91.642 Y110.93 E.08288
G1 X91.106 Y110.93 E.01688
G1 X89.246 Y109.07 E.08288
G1 X88.71 Y109.07 E.01688
G1 X90.57 Y110.93 E.08288
G1 X90.034 Y110.93 E.01688
G1 X88.174 Y109.07 E.08288
G1 X87.638 Y109.07 E.01688
G1 X89.499 Y110.93 E.08288
G1 X88.963 Y110.93 E.01688
G1 X87.103 Y109.07 E.08288
